X: 1
T:O'Connors Polka
M:C|
L:1/4
K:G
|:"G"D>E GB|D>E GB|"Am"AE ED/E/|"C"GE EG|
"G"D>E GB|D>E GB|"Am"AE "D7"FG|"G"AG G2:|
|:"G"dB BA/B/|dB B>A|"Em"GE ED/E/|GE E>B|
"G"dB BA/B/|dB B>A|"C"GE "D7"FG|"G"AG G2:|
